icons/git-alt.svg

<svg xmlns="http://www.w3.org/2000/svg" viewBox="0 0 24 24" fill="currentColor">
  <path d="M16.75 4.25c-.6904 0-1.25.55964-1.25 1.25s.5596 1.25 1.25 1.25S18 6.19036 18 5.5s-.5596-1.25-1.25-1.25ZM19.5 5.5c0 1.29017-.8885 2.37283-2.0869 2.66953-.0223.10052-.0502.21013-.0854.32723-.1672.55755-.4974 1.28515-1.1452 2.00494-1.2384 1.376-3.524 2.6049-7.6825 2.7366V15.5c0 .1195-.02796.2325-.07768.3328C9.61611 16.1327 10.5 17.2131 10.5 18.5c0 1.5188-1.23122 2.75-2.75 2.75S5 20.0188 5 18.5c0-1.2869.88389-2.3673 2.07768-2.6672C7.02796 15.7325 7 15.6195 7 15.5V5.81062L5.78033 7.03029c-.29289.29289-.76777.29289-1.06066 0-.29289-.2929-.29289-.76777 0-1.06066l2.1-2.1c.53747-.53747 1.26129-.41709 1.74636-.09371l.06179.04119 2.15248 2.15252c.2929.29289.2929.76776 0 1.06066-.2929.29289-.7677.29289-1.06063 0L8.5 5.81061v5.92699c3.8475-.13 5.684-1.2576 6.5675-2.23932.4594-.51044.6919-1.01365.8103-1.38949C14.7865 7.74411 14 6.71391 14 5.5c0-1.51878 1.2312-2.75 2.75-2.75S19.5 3.98122 19.5 5.5ZM7.75 17.25c-.69036 0-1.25.5596-1.25 1.25s.55964 1.25 1.25 1.25S9 19.1904 9 18.5s-.55964-1.25-1.25-1.25Z"/>
</svg>

<svg width="24" height="24" viewBox="0 0 24 24" fill="none" xmlns="http://www.w3.org/2000/svg">
<path fill-rule="evenodd" clip-rule="evenodd" d="M16.75 4.25C16.0596 4.25 15.5 4.80964 15.5 5.5C15.5 6.19036 16.0596 6.75 16.75 6.75C17.4404 6.75 18 6.19036 18 5.5C18 4.80964 17.4404 4.25 16.75 4.25ZM19.5 5.5C19.5 6.79017 18.6115 7.87283 17.4131 8.16953C17.3908 8.27005 17.3629 8.37966 17.3277 8.49676C17.1605 9.05431 16.8303 9.78191 16.1825 10.5017C14.9441 11.8777 12.6585 13.1066 8.5 13.2383V15.5C8.5 15.6195 8.47204 15.7325 8.42232 15.8328C9.61611 16.1327 10.5 17.2131 10.5 18.5C10.5 20.0188 9.26878 21.25 7.75 21.25C6.23122 21.25 5 20.0188 5 18.5C5 17.2131 5.88389 16.1327 7.07768 15.8328C7.02796 15.7325 7 15.6195 7 15.5V12.5V5.81062L5.78033 7.03029C5.48744 7.32318 5.01256 7.32318 4.71967 7.03029C4.42678 6.73739 4.42678 6.26252 4.71967 5.96963L6.81967 3.86963C7.35714 3.33216 8.08096 3.45254 8.56603 3.77592L8.62782 3.81711L10.7803 5.96963C11.0732 6.26252 11.0732 6.73739 10.7803 7.03029C10.4874 7.32318 10.0126 7.32318 9.71967 7.03029L8.5 5.81061V11.7376C12.3475 11.6076 14.184 10.48 15.0675 9.49828C15.5269 8.98784 15.7594 8.48463 15.8778 8.10879C14.7865 7.74411 14 6.71391 14 5.5C14 3.98122 15.2312 2.75 16.75 2.75C18.2688 2.75 19.5 3.98122 19.5 5.5ZM7.75 17.25C7.05964 17.25 6.5 17.8096 6.5 18.5C6.5 19.1904 7.05964 19.75 7.75 19.75C8.44036 19.75 9 19.1904 9 18.5C9 17.8096 8.44036 17.25 7.75 17.25Z" fill="black"/>
</svg>
